svgs/sharp-solid/bed-empty.svg

<svg xmlns="http://www.w3.org/2000/svg" viewBox="0 0 640 512"><!--! Font Awesome Pro 6.6.0 by @fontawesome - https://fontawesome.com License - https://fontawesome.com/license (Commercial License) Copyright 2024 Fonticons, Inc. --><path d="M64 64l0-32L0 32 0 64 0 256l0 96 0 32 0 64 0 32 64 0 0-32 0-32 288 0 224 0 0 32 0 32 64 0 0-32 0-192 0-32-32 0L64 224 64 64z"/></svg>

<svg xmlns="http://www.w3.org/2000/svg" viewBox="0 0 640 512"><!--! Font Awesome Pro 6.5.2 by @fontawesome - https://fontawesome.com License - https://fontawesome.com/license (Commercial License) Copyright 2024 Fonticons, Inc. --><path d="M64 64V32H0V64 256v96 32 64 32H64V448 416H352 576v32 32h64V448 256 224H608 64V64z"/></svg>
